public/images/gift.svg

<svg width="104" height="104" viewBox="0 0 104 104" fill="none" xmlns="http://www.w3.org/2000/svg">
<path d="M5.71472 49.9459L8.78135 26.965L46.8803 20.8636L84.9792 14.7622L95.069 35.6362L50.3919 42.7911L5.71472 49.9459Z" fill="#DB0E47"/>
<path d="M7.91349 63.6505L5.71875 49.9459L50.3959 42.791L95.073 35.6361L97.2678 49.3408C97.5587 51.1573 96.3219 52.8657 94.5054 53.1566L53.1174 59.7848L11.7293 66.4129C9.91282 66.7038 8.2044 65.467 7.91349 63.6505Z" fill="#AC0A34"/>
<path d="M23.3445 97.6594L13.3672 66.1501L53.3847 59.7414L93.4023 53.3328L93.7638 86.3821C93.7818 88.0321 92.5891 89.4467 90.9597 89.7076L59.0033 94.8253L27.0469 99.943C25.4175 100.204 23.8427 99.2326 23.3445 97.6594Z" fill="#B40B36"/>
<path d="M36.407 45.03L39.1557 21.8189L47.1044 20.5459L55.0531 19.2729L64.9127 40.4649L36.407 45.03Z" fill="#FAE820"/>
<path d="M46.3291 95.596L39.125 62.0239L67.6307 57.4588L71.2708 91.6017C71.4273 93.0697 70.4074 94.4034 68.9496 94.6369L49.4821 97.7545C48.0243 97.988 46.6389 97.0395 46.3291 95.596Z" fill="#FCBD0E"/>
<path d="M14.948 73.0627L13.2109 66.3931L93.146 53.592L94.2309 60.366L14.948 73.0627Z" fill="black" fill-opacity="0.2"/>
<path d="M39.1284 62.0234L36.4069 45.0297L64.9126 40.4646L67.634 57.4583L39.1284 62.0234Z" fill="#FCBD0E"/>
<path d="M82.3565 14.0577C84.2931 13.7477 86.2038 14.7445 87.0574 16.5103L95.7095 34.4093L95.9901 34.3644L96.1399 35.2997L96.7183 36.4968L96.3413 36.5571L98.3604 49.165C98.7483 51.587 97.0991 53.8649 94.6772 54.2529L94.5258 54.2771L94.8765 86.3696C94.9005 88.5696 93.3105 90.4557 91.1381 90.8037L27.2249 101.039C25.0525 101.387 22.953 100.092 22.2888 97.9942L12.6 67.3972L11.9009 67.5092C9.47887 67.8971 7.20093 66.248 6.81305 63.826L4.79395 51.2181L4.41692 51.2785L4.59258 49.9607L4.44279 49.0253L4.72339 48.9804L7.35327 29.2746C7.61278 27.3306 9.11657 25.7868 11.0532 25.4767L82.3565 14.0577Z" stroke="black" stroke-width="2.22068" stroke-linecap="square"/>
<path d="M5.71875 49.9459L95.073 35.6361" stroke="black" stroke-width="2.22068"/>
<path d="M10.6094 67.5046L95.6251 53.8897" stroke="black" stroke-width="2.22068"/>
<g filter="url(#filter0_d_228_30917)">
<path d="M14.8424 22.6728C15.0699 22.8401 15.8069 23.2069 17.1237 23.43C18.4123 23.6483 20.1998 23.7187 22.4769 23.3541L41.4249 20.3196L43.6052 33.9342L23.8289 37.1013C19.5828 37.7813 16.0016 35.9548 13.5909 33.8977C12.381 32.8652 11.4293 31.7462 10.7958 30.7839C10.4806 30.305 10.2276 29.8411 10.0641 29.4265C9.9827 29.2199 9.91347 29.0004 9.87574 28.7812C9.84129 28.581 9.81452 28.2782 9.91547 27.9609L9.96412 27.8077L10.0546 27.6745L13.2648 22.9433L13.9129 21.988L14.8424 22.6728Z" fill="#FF8E0A" stroke="black" stroke-width="2.22068"/>
<mask id="mask0_228_30917" style="mask-type:alpha" maskUnits="userSpaceOnUse" x="10" y="21" width="33" height="16">
<path d="M23.6532 36.0049C16.0247 37.2265 10.5967 29.4825 10.9737 28.2976L14.1835 23.5667C15.0161 24.1799 17.8755 25.2151 22.6524 24.4501L40.5038 21.5913L41.427 27.3563L42.333 33.0134L23.6532 36.0049Z" fill="#FF8E0A"/>
</mask>
<g mask="url(#mask0_228_30917)">
<path d="M24.4831 29.5073C17.4485 30.6339 15.156 33.5824 14.4672 34.2037L15.0818 38.041L38.5658 34.2801C37.0108 32.2377 31.5178 28.3808 24.4831 29.5073Z" fill="#FFBC0F"/>
</g>
<path d="M43.1423 31.047L40.5849 28.0771C39.4016 26.703 37.0656 24.6594 33.9917 23.1337C30.9262 21.6122 27.1917 20.6366 23.169 21.2808C19.5738 21.8565 17.2589 22.9035 15.6346 24.232C14.0091 25.5615 12.9793 27.2499 12.0773 29.2908L11.2946 31.0608L10.1611 29.4918L11.061 28.8423L10.161 29.4908L10.1599 29.49L10.1586 29.4882C10.1574 29.4866 10.1561 29.484 10.1546 29.482C10.1517 29.4779 10.1474 29.4728 10.1433 29.467C10.1351 29.4552 10.1248 29.44 10.1123 29.4215C10.087 29.384 10.0532 29.3325 10.0124 29.2674C9.93083 29.1368 9.8213 28.9507 9.696 28.7118C9.44536 28.2338 9.13095 27.5412 8.85352 26.6501C8.29746 24.864 7.8916 22.2898 8.4292 19.0661C9.12596 14.8885 13.971 10.949 21.8783 9.68268C26.9274 8.8741 31.1565 9.66713 34.3435 11.0214C37.4918 12.3592 39.6958 14.279 40.622 15.8154L40.7327 16.0004L43.1423 31.047Z" fill="#F8E41C" stroke="black" stroke-width="2.22068"/>
<mask id="mask1_228_30917" style="mask-type:alpha" maskUnits="userSpaceOnUse" x="9" y="10" width="33" height="19">
<path d="M22.9931 20.184C31.6131 18.8035 38.8737 24.3877 41.4265 27.3524L39.6706 16.3887C38.1273 13.8285 31.7236 9.23049 22.0537 10.7791C14.3178 12.018 10.1027 15.7836 9.52483 19.2485C8.513 25.3152 11.0613 28.8418 11.0613 28.8418C12.9333 24.6063 15.5334 21.3786 22.9931 20.184Z" fill="#F8E41C"/>
</mask>
<g mask="url(#mask1_228_30917)">
<path d="M18.9366 21.3996C20.2561 17.2525 18.792 12.2394 18.1413 11.1254C20.2595 10.7862 25.3281 10.3263 31.2583 9.86812C28.4826 11.9994 28.1676 17.11 28.7821 20.9473C26.4212 20.9506 21.1469 21.0456 18.9366 21.3996Z" fill="#FCFD9F"/>
</g>
<path d="M78.3645 12.4982C78.2007 12.7282 77.6151 13.3068 76.4338 13.93C75.2778 14.5397 73.6017 15.1648 71.3246 15.5295L52.3766 18.5639L54.557 32.1785L74.3333 29.0114C78.5793 28.3315 81.4111 25.4779 83.0588 22.7709C83.8858 21.4123 84.4404 20.052 84.7417 18.94C84.8917 18.3866 84.9871 17.8669 85.0129 17.422C85.0258 17.2003 85.023 16.9701 84.9904 16.7501C84.9606 16.5492 84.8915 16.2531 84.6965 15.9832L84.6024 15.8529L84.4749 15.7546L79.9478 12.2625L79.0337 11.5573L78.3645 12.4982Z" fill="#FF8E0A" stroke="black" stroke-width="2.22068"/>
<mask id="mask2_228_30917" style="mask-type:alpha" maskUnits="userSpaceOnUse" x="53" y="13" width="31" height="18">
<path d="M74.1578 27.915C81.7863 26.6933 84.5244 17.6414 83.7963 16.6336L79.2696 13.1417C78.6702 13.9842 76.277 15.8606 71.5001 16.6256L53.6488 19.4844L54.572 25.2494L55.478 30.9065L74.1578 27.915Z" fill="#FF8E0A"/>
</mask>
<g mask="url(#mask2_228_30917)">
<path d="M71.3372 22.0023C78.3718 20.8758 81.4704 22.9609 82.3188 23.336L82.9333 27.1733L59.4492 30.9342C60.2887 28.5083 64.3025 23.1289 71.3372 22.0023Z" fill="#FFBC0F"/>
</g>
<path d="M54.101 29.291L55.6032 25.6711C56.2981 23.9961 57.8791 21.3253 60.3229 18.9159C62.7599 16.5132 66.003 14.4202 70.0257 13.7759C73.6209 13.2001 76.1469 13.4718 78.1049 14.2267C80.0643 14.982 81.5698 16.2644 83.064 17.9216L84.3603 19.3587L84.9471 17.5142L83.8895 17.1782L84.947 17.5132L84.9478 17.5121L84.9485 17.51C84.9491 17.5081 84.9495 17.5052 84.9503 17.5028C84.9518 17.498 84.9543 17.4918 84.9563 17.485C84.9604 17.4713 84.9655 17.4536 84.9716 17.4321C84.9839 17.3886 85 17.3292 85.0183 17.2545C85.0551 17.105 85.101 16.894 85.1454 16.6279C85.2343 16.0956 85.3167 15.3394 85.302 14.4063C85.2724 12.5358 84.8541 9.96359 83.3367 7.06905C81.3702 3.31791 75.5373 1.08846 67.6299 2.35479C62.5808 3.16342 58.8109 5.23745 56.2062 7.51919C53.6331 9.77333 52.1389 12.2853 51.7388 14.0342L51.6914 14.2445L54.101 29.291Z" fill="#F8E41C" stroke="black" stroke-width="2.22068"/>
<mask id="mask3_228_30917" style="mask-type:alpha" maskUnits="userSpaceOnUse" x="52" y="3" width="33" height="23">
<path d="M69.8503 12.6791C61.2302 14.0595 56.0766 21.6318 54.5772 25.2454L52.8215 14.2817C53.4882 11.3676 58.1358 4.99974 67.8057 3.45115C75.5416 2.21227 80.7218 4.47331 82.3528 7.58448C85.2086 13.0318 83.889 17.1777 83.889 17.1777C80.788 13.7387 77.3099 11.4844 69.8503 12.6791Z" fill="#F8E41C"/>
</mask>
<g mask="url(#mask3_228_30917)">
<path d="M74.085 12.5672C71.5365 9.03958 71.3618 3.81994 71.6321 2.55846C69.5139 2.89768 64.5552 4.04362 58.7785 5.46028C62.081 6.61814 63.9762 11.3748 64.5907 15.2121C66.8346 14.478 71.8748 12.9211 74.085 12.5672Z" fill="#FCFD9F"/>
</g>
<g filter="url(#filter1_d_228_30917)">
<rect x="39.6641" y="16.3915" width="13.3241" height="13.8793" transform="rotate(-9.09844 39.6641 16.3915)" fill="#FCBD0E"/>
</g>
<path d="M52.6034 12.9136L55.676 32.0998L42.5194 34.2067L39.4468 15.0205L52.6034 12.9136Z" stroke="black" stroke-width="2.22068"/>
</g>
<defs>
<filter id="filter0_d_228_30917" x="7.07031" y="0.890079" width="79.3438" height="39.6872" filterUnits="userSpaceOnUse" color-interpolation-filters="sRGB">
<feFlood flood-opacity="0" result="BackgroundImageFix"/>
<feColorMatrix in="SourceAlpha" type="matrix" values="0 0 0 0 0 0 0 0 0 0 0 0 0 0 0 0 0 0 127 0" result="hardAlpha"/>
<feOffset dy="2.22068"/>
<feComposite in2="hardAlpha" operator="out"/>
<feColorMatrix type="matrix" values="0 0 0 0 0 0 0 0 0 0 0 0 0 0 0 0 0 0 0.25 0"/>
<feBlend mode="normal" in2="BackgroundImageFix" result="effect1_dropShadow_228_30917"/>
<feBlend mode="normal" in="SourceGraphic" in2="effect1_dropShadow_228_30917" result="shape"/>
</filter>
<filter id="filter1_d_228_30917" x="39.6641" y="14.2846" width="15.3516" height="19.6977" filterUnits="userSpaceOnUse" color-interpolation-filters="sRGB">
<feFlood flood-opacity="0" result="BackgroundImageFix"/>
<feColorMatrix in="SourceAlpha" type="matrix" values="0 0 0 0 0 0 0 0 0 0 0 0 0 0 0 0 0 0 127 0" result="hardAlpha"/>
<feOffset dy="3.8862"/>
<feComposite in2="hardAlpha" operator="out"/>
<feColorMatrix type="matrix" values="0 0 0 0 1 0 0 0 0 0.556863 0 0 0 0 0.0392157 0 0 0 1 0"/>
<feBlend mode="normal" in2="BackgroundImageFix" result="effect1_dropShadow_228_30917"/>
<feBlend mode="normal" in="SourceGraphic" in2="effect1_dropShadow_228_30917" result="shape"/>
</filter>
</defs>
</svg>

<svg xmlns="http://www.w3.org/2000/svg" width="104" height="104" fill="none" xmlns:v="https://vecta.io/nano"><style><![CDATA[.B{stroke:#000}.C{stroke-width:2.221}.D{fill:#ff8e0a}.E{fill:#f8e41c}.F{fill:#fcbd0e}.G{color-interpolation-filters:sRGB}]]></style><path d="M5.715 49.946l3.067-22.981 38.099-6.101 38.099-6.101 10.09 20.874-44.677 7.155-44.677 7.155z" fill="#db0e47"/><path d="M7.913 63.651L5.719 49.946l44.677-7.155 44.677-7.155 2.195 13.705a3.33 3.33 0 0 1-2.762 3.816l-41.388 6.628-41.388 6.628a3.33 3.33 0 0 1-3.816-2.762z" fill="#ac0a34"/><path d="M23.345 97.659L13.367 66.15l40.018-6.409 40.018-6.409.362 33.049a3.33 3.33 0 0 1-2.804 3.326l-31.956 5.118-31.956 5.118a3.33 3.33 0 0 1-3.702-2.284z" fill="#b40b36"/><path d="M36.407 45.03l2.749-23.211 7.949-1.273 7.949-1.273 9.86 21.192-28.506 4.565z" fill="#fae820"/><path d="M46.329 95.596l-7.204-33.572 28.506-4.565 3.64 34.143c.157 1.468-.863 2.802-2.321 3.035l-19.467 3.118c-1.458.234-2.843-.715-3.153-2.158z" class="F"/><path d="M14.948 73.063l-1.737-6.67 79.935-12.801 1.085 6.774-79.283 12.697z" fill="#000" fill-opacity=".2"/><path d="M39.128 62.023L36.407 45.03l28.506-4.565 2.721 16.994-28.506 4.565z" class="F"/><g class="B C"><path d="M82.357 14.058a4.44 4.44 0 0 1 4.701 2.453l8.652 17.899.281-.045.15.935.578 1.197-.377.06 2.019 12.608c.388 2.422-1.261 4.7-3.683 5.088l-.151.024.351 32.093a4.44 4.44 0 0 1-3.738 4.434l-63.913 10.235a4.44 4.44 0 0 1-4.936-3.045L12.6 67.397l-.699.112c-2.422.388-4.7-1.261-5.088-3.683L4.794 51.218l-.377.06.176-1.318-.15-.935.281-.045 2.63-19.706a4.44 4.44 0 0 1 3.7-3.798l71.303-11.419z"/><path d="M5.719 49.946l89.354-14.31M10.609 67.505L95.625 53.89"/></g><g filter="url(#E)"><path d="M14.842 22.673c.228.167.965.534 2.281.757 1.289.218 3.076.289 5.353-.076l18.948-3.034 2.18 13.615-19.776 3.167c-4.246.68-7.827-1.147-10.238-3.204-1.21-1.032-2.162-2.151-2.795-3.114-.315-.479-.568-.943-.732-1.357-.081-.207-.151-.426-.188-.645-.034-.2-.061-.503.04-.82l.049-.153.09-.133 3.21-4.731.648-.955.929.685z" class="B C D"/><mask id="A" maskUnits="userSpaceOnUse" x="10" y="21" width="33" height="16" mask-type="alpha"><path d="M23.653 36.005c-7.628 1.222-13.056-6.522-12.679-7.707l3.21-4.731c.833.613 3.692 1.648 8.469.883l17.851-2.859.923 5.765.906 5.657-18.68 2.992z" class="D"/></mask><g mask="url(#A)"><path d="M24.483 29.507c-7.035 1.127-9.327 4.075-10.016 4.696l.615 3.837 23.484-3.761c-1.555-2.042-7.048-5.899-14.083-4.773z" fill="#ffbc0f"/></g><path d="M43.142 31.047l-2.557-2.97c-1.183-1.374-3.519-3.418-6.593-4.943-3.065-1.521-6.8-2.497-10.823-1.853-3.595.576-5.91 1.623-7.534 2.951s-2.655 3.018-3.557 5.059l-.783 1.77-1.134-1.569.9-.649-.9.648-.001-.001-.001-.002c-.007-.01-.011-.015-.015-.021l-.031-.045c-.025-.038-.059-.089-.1-.154a8.58 8.58 0 0 1-.316-.556c-.251-.478-.565-1.171-.842-2.062-.556-1.786-.962-4.36-.424-7.584.697-4.178 5.542-8.117 13.449-9.383 5.049-.809 9.278-.016 12.465 1.339 3.148 1.338 5.352 3.258 6.279 4.794l.111.185 2.41 15.047z" class="B C E"/><mask id="B" maskUnits="userSpaceOnUse" x="9" y="10" width="33" height="19" mask-type="alpha"><path d="M22.993 20.184c8.62-1.381 15.881 4.204 18.433 7.168l-1.756-10.964c-1.543-2.56-7.947-7.158-17.617-5.61-7.736 1.239-11.951 5.005-12.529 8.469-1.012 6.067 1.536 9.593 1.536 9.593 1.872-4.235 4.472-7.463 11.932-8.658z" class="E"/></mask><g mask="url(#B)"><path d="M18.937 21.4c1.32-4.147-.145-9.16-.795-10.274 2.118-.339 7.187-.799 13.117-1.257-2.776 2.131-3.091 7.242-2.476 11.079-2.361.003-7.635.098-9.846.452z" fill="#fcfd9f"/></g><path d="M78.365 12.498c-.164.23-.749.809-1.931 1.432-1.156.61-2.832 1.235-5.109 1.6l-18.948 3.034 2.18 13.615 19.776-3.167c4.246-.68 7.078-3.533 8.726-6.24.827-1.359 1.382-2.719 1.683-3.831.15-.553.245-1.073.271-1.518.013-.222.01-.452-.023-.672-.03-.201-.099-.497-.294-.767l-.094-.13-.127-.098-4.527-3.492-.914-.705-.669.941z" class="B C D"/><mask id="C" maskUnits="userSpaceOnUse" x="53" y="13" width="31" height="18" mask-type="alpha"><path d="M74.158 27.915c7.629-1.222 10.367-10.274 9.639-11.281l-4.527-3.492c-.599.842-2.993 2.719-7.769 3.484l-17.851 2.859.923 5.765.906 5.657 18.68-2.992z" class="D"/></mask><g mask="url(#C)"><path d="M71.337 22.002c7.035-1.126 10.133.959 10.982 1.334l.615 3.837-23.484 3.761c.84-2.426 4.853-7.805 11.888-8.932z" fill="#ffbc0f"/></g><path d="M54.101 29.291l1.502-3.62c.695-1.675 2.276-4.346 4.72-6.755 2.437-2.403 5.68-4.496 9.703-5.14 3.595-.576 6.121-.304 8.079.451s3.465 2.038 4.959 3.695l1.296 1.437.587-1.844-1.058-.336 1.058.335.001-.001.001-.002c.003-.012.006-.018.008-.025l.015-.053c.012-.043.028-.103.047-.178.037-.149.083-.361.127-.627.089-.532.171-1.289.157-2.222-.03-1.87-.448-4.443-1.965-7.337-1.966-3.751-7.799-5.981-15.707-4.714-5.049.809-8.819 2.883-11.424 5.164-2.573 2.254-4.067 4.766-4.467 6.515l-.047.21 2.41 15.047z" class="B C E"/><mask id="D" maskUnits="userSpaceOnUse" x="52" y="3" width="33" height="23" mask-type="alpha"><path d="M69.85 12.679c-8.62 1.38-13.774 8.953-15.273 12.566l-1.756-10.964C53.488 11.368 58.136 5 67.806 3.451c7.736-1.239 12.916 1.022 14.547 4.133 2.856 5.447 1.536 9.593 1.536 9.593-3.101-3.439-6.579-5.693-14.039-4.499z" class="E"/></mask><g mask="url(#D)"><path d="M74.085 12.567C71.537 9.04 71.362 3.82 71.632 2.558c-2.118.339-7.077 1.485-12.854 2.902 3.303 1.158 5.198 5.915 5.812 9.752 2.244-.734 7.284-2.291 9.494-2.645z" fill="#fcfd9f"/></g><g filter="url(#F)" class="F"><path transform="rotate(350.902 39.664 16.392)" d="M39.664 16.392h13.324v13.879H39.664z"/></g><path d="M52.603 12.914L55.676 32.1l-13.157 2.107-3.073-19.186 13.157-2.107z" class="B C"/></g><defs><filter id="E" x="7.07" y=".89" width="79.344" height="39.687" filterUnits="userSpaceOnUse" class="G"><feFlood flood-opacity="0" result="A"/><feColorMatrix in="SourceAlpha" values="0 0 0 0 0 0 0 0 0 0 0 0 0 0 0 0 0 0 127 0" result="B"/><feOffset dy="2.22068"/><feComposite in2="B" operator="out"/><feColorMatrix values="0 0 0 0 0 0 0 0 0 0 0 0 0 0 0 0 0 0 0.25 0"/><feBlend in2="A"/><feBlend in="SourceGraphic"/></filter><filter id="F" x="39.664" y="14.285" width="15.352" height="19.698" filterUnits="userSpaceOnUse" class="G"><feFlood flood-opacity="0" result="A"/><feColorMatrix in="SourceAlpha" values="0 0 0 0 0 0 0 0 0 0 0 0 0 0 0 0 0 0 127 0" result="B"/><feOffset dy="3.8862"/><feComposite in2="B" operator="out"/><feColorMatrix values="0 0 0 0 1 0 0 0 0 0.556863 0 0 0 0 0.0392157 0 0 0 1 0"/><feBlend in2="A"/><feBlend in="SourceGraphic"/></filter></defs></svg>
